**kern	**silbe	**harmony	**phrase	**leadinstrument	**rhyme	**harte
*ICvox	*	*M3/4	*	*	*	*M3/4
*VRlead	*	*	*	*	*	*
*Hstimme	*	*	*	*	*	*
*A:	*	*A:	*	*	*	*A:
*M3/4	*	*	*	*	*	*
*clefG2	*	*	*	*	*	*
r;	.	1r;	.	r	.	N.C.
=1	=1	=1	=1	=1	=1	=1
*>Letter>A	*>Letter>A	*>Letter>A	*>Letter>A	*>Letter>A	*>Letter>A	*>Letter>A
*>Label>Intro	*>Label>Intro	*>Label>Intro	*>Label>Intro	*>Label>Intro	*>Label>Intro	*>Label>Intro
2.r	.	2.AM	newline	guitar	.	A:maj
=2	=2	=2	=2	=2	=2	=2
2.r	.	2.AMM	.	guitar	.	A:maj7
=3	=3	=3	=3	=3	=3	=3
2.r	.	2.Bmm	.	guitar	.	B:min7
=4	=4	=4	=4	=4	=4	=4
2r	.	2.EM	.	guitar	.	E:sus4(b7)
8r	.	.	.	.	.	.
8E	I'll	.	.	.	.	.
=5	=5	=5	=5	=5	=5	=5
*>Letter>B	*>Letter>B	*>Letter>B	*>Letter>B	*>Letter>B	*>Letter>B	*>Letter>B
*>Label>Verse	*>Label>Verse	*>Label>Verse	*>Label>Verse	*>Label>Verse	*>Label>Verse	*>Label>Verse
8e	al-	2.AM	newline	voice	.	A:maj
[8e	-ways	.	.	.	.	.
4.e]	_	.	.	.	.	.
8f#	re-	.	.	.	.	.
=6	=6	=6	=6	=6	=6	=6
8e	-mem-	2.AMm	.	voice	.	A:7
[8c#	-ber	.	.	.	.	.
4c#]	_	.	.	.	.	.
8r	.	.	.	.	.	.
8c#	the	.	.	.	.	.
=7	=7	=7	=7	=7	=7	=7
2F#	song	2.DM	.	voice	.	D:maj
8A	they	.	.	.	.	.
8d	were	.	.	.	.	.
=8	=8	=8	=8	=8	=8	=8
8c#	pla-	2.EM	.	voice	.	E:maj
4.B	-ying	.	.	.	.	.
8r	.	.	.	.	.	.
8E	The	.	.	.	.	.
=9	=9	=9	=9	=9	=9	=9
8F#	first	2.DM	newline	voice	.	D:maj
4.A	time	.	.	.	.	.
8F#	we	.	.	.	.	.
[8G#	danced	.	.	.	.	.
=10	=10	=10	=10	=10	=10	=10
4G#]	_	2.EM	.	voice	.	E:maj
8r	.	.	.	.	.	.
8d	and	.	.	.	.	.
4f#	I	.	.	.	.	.
=11	=11	=11	=11	=11	=11	=11
2e	knew	2.AM	.	voice	A	A:maj
4r	.	.	.	.	.	.
=12	=12	=12	=12	=12	=12	=12
2r	.	2.EM	.	voice	.	E:maj
8c#	As	.	.	.	.	.
8d	we	.	.	.	.	.
=13	=13	=13	=13	=13	=13	=13
4e	swayed	2.AM	newline	voice	.	A:maj
4.e	to	.	.	.	.	.
8f#	the	.	.	.	.	.
=14	=14	=14	=14	=14	=14	=14
8e	mu-	2.AMm	.	voice	.	A:7
8d	-sic,	.	.	.	.	.
4r	.	.	.	.	.	.
8r	.	.	.	.	.	.
8c#	and	.	.	.	.	.
=15	=15	=15	=15	=15	=15	=15
2F#	held	2.DM	.	voice	.	D:maj
8A	to	.	.	.	.	.
8d	each	.	.	.	.	.
=16	=16	=16	=16	=16	=16	=16
8c#	o-	2.EM	.	voice	.	E:maj
4.B	-ther,	.	.	.	.	.
4r	.	.	.	.	.	.
=17	=17	=17	=17	=17	=17	=17
4F#	I	2.DM	newline	voice	.	D:maj
4G#	fell	.	.	.	.	.
8A	in	.	.	.	.	.
[8c#	love	.	.	.	.	.
=18	=18	=18	=18	=18	=18	=18
2c#]	_	2.EM	.	voice	.	E:maj
8B	with	.	.	.	.	.
8A	_	.	.	.	.	.
=19	=19	=19	=19	=19	=19	=19
2A	you	2.AM	.	voice	A	A:maj
4r	.	.	.	.	.	.
=20	=20	=20	=20	=20	=20	=20
2r	.	2.EM	.	voice	.	E:maj
8r	.	.	.	.	.	.
8G#	Could	.	.	.	.	.
=21	=21	=21	=21	=21	=21	=21
*>Letter>C	*>Letter>C	*>Letter>C	*>Letter>C	*>Letter>C	*>Letter>C	*>Letter>C
*>Label>Chorus	*>Label>Chorus	*>Label>Chorus	*>Label>Chorus	*>Label>Chorus	*>Label>Chorus	*>Label>Chorus
4A	I	2.AM	newline	voice	.	A:maj
4G#	have	.	.	.	.	.
4B	this	.	.	.	.	.
=22	=22	=22	=22	=22	=22	=22
4A	dance	2.AMm	.	voice	.	A:7
4r	.	.	.	.	.	.
8F#	for	.	.	.	.	.
8G#	the	.	.	.	.	.
=23	=23	=23	=23	=23	=23	=23
4A	rest	2.DM	.	voice	.	D:maj
4F#	of	.	.	.	.	.
4E	my	.	.	.	.	.
=24	=24	=24	=24	=24	=24	=24
4F#	life,	2.DM	.	voice	B	D:maj
4r	.	.	.	.	.	.
8r	.	.	.	.	.	.
8E	Could	.	.	.	.	.
=25	=25	=25	=25	=25	=25	=25
8G#	you	2.EM	newline	voice	.	E:maj
[8G#	be	.	.	.	.	.
4.G#]	_	.	.	.	.	.
8G#	my	.	.	.	.	.
=26	=26	=26	=26	=26	=26	=26
8A	part-	2.EM	.	voice	.	E:maj
4.G#	-ner	.	.	.	.	.
4r	.	.	.	.	.	.
=27	=27	=27	=27	=27	=27	=27
4F#	e	2.DM	.	voice	.	D:maj
4G#	_	.	.	.	.	.
8A	ry	.	.	.	.	.
[8B	night,	.	.	.	B	.
=28	=28	=28	=28	=28	=28	=28
4.B]	_	2.EM	.	voice	.	E:maj
8r	.	.	.	.	.	.
4r	.	.	.	.	.	.
=29	=29	=29	=29	=29	=29	=29
4c#	when	2.AM	newline	voice	.	A:maj
4.c#	we're	.	.	.	.	.
8c#	to-	.	.	.	.	.
=30	=30	=30	=30	=30	=30	=30
8d	-ge-	2.AMm	.	voice	.	A:7
4.c#	-ther	.	.	.	.	.
4c#	it	.	.	.	.	.
=31	=31	=31	=31	=31	=31	=31
2A	feels	2.DM	.	voice	.	D:maj
4c#	so	.	.	.	.	.
=32	=32	=32	=32	=32	=32	=32
4.A	right	2.Dm	.	voice	B	D:min
8r	.	.	.	.	.	.
8r	.	.	.	.	.	.
8B	Could	.	.	.	.	.
=33	=33	=33	=33	=33	=33	=33
4c#	I	2.AM	newline	voice	.	A:maj
4B	have	.	.	.	.	.
8A	this	.	.	.	.	.
[8E	dance	.	.	.	.	.
=34	=34	=34	=34	=34	=34	=34
4E]	_	2.AM	.	voice	.	A:maj
4r	.	.	.	.	.	.
8B	for	.	.	.	.	.
8c#	the	.	.	.	.	.
=35	=35	=35	=35	=35	=35	=35
4d	rest	2.EM	.	voice	.	E:maj
4c#	of	.	.	.	.	.
4B	my	.	.	.	.	.
=36	=36	=36	=36	=36	=36	=36
*>Letter>D	*>Letter>D	*>Letter>D	*>Letter>D	*>Letter>D	*>Letter>D	*>Letter>D
*>Label>Trans	*>Label>Trans	*>Label>Trans	*>Label>Trans	*>Label>Trans	*>Label>Trans	*>Label>Trans
2A	life	2.AM	newline	voice	B	A:maj
4r	.	.	.	.	.	.
=37	=37	=37	=37	=37	=37	=37
2r	.	2.EM	.	voice	.	E:maj
8r	.	.	.	.	.	.
8E	I'll	.	.	.	.	.
=38	=38	=38	=38	=38	=38	=38
*>Letter>B	*>Letter>B	*>Letter>B	*>Letter>B	*>Letter>B	*>Letter>B	*>Letter>B
*>Label>Verse	*>Label>Verse	*>Label>Verse	*>Label>Verse	*>Label>Verse	*>Label>Verse	*>Label>Verse
8e	al-	2.AM	newline	voice	.	A:maj
[8e	-ways	.	.	.	.	.
4.e]	_	.	.	.	.	.
8f#	re-	.	.	.	.	.
=39	=39	=39	=39	=39	=39	=39
8e	-mem-	2.AMm	.	voice	.	A:7
[8c#	-ber	.	.	.	.	.
4c#]	_	.	.	.	.	.
4r	.	.	.	.	.	.
=40	=40	=40	=40	=40	=40	=40
4F#	that	2.DM	.	voice	.	D:maj
4A	ma-	.	.	.	.	.
8d	-gic	.	.	.	.	.
[8c#	mo-	.	.	.	.	.
=41	=41	=41	=41	=41	=41	=41
8c#]	_	2.EM	.	voice	.	E:maj
4.B	-ment,	.	.	.	.	.
8r	.	.	.	.	.	.
8E	When	.	.	.	.	.
=42	=42	=42	=42	=42	=42	=42
8F#	I	2.DM	newline	voice	.	D:maj
4.A	held	.	.	.	.	.
8F#	you	.	.	.	.	.
[8G#	close	.	.	.	.	.
=43	=43	=43	=43	=43	=43	=43
4G#]	_	2.EM	.	voice	.	E:maj
4r	.	.	.	.	.	.
4f#	to	.	.	.	.	.
=44	=44	=44	=44	=44	=44	=44
2e	me	2.AM	.	voice	C	A:maj
4r	.	.	.	.	.	.
=45	=45	=45	=45	=45	=45	=45
2r	.	2.EM	.	voice	.	E:maj
8r	.	.	.	.	.	.
8E	As	.	.	.	.	.
=46	=46	=46	=46	=46	=46	=46
8e	we	2.AM	newline	voice	.	A:maj
[8e	move	.	.	.	.	.
4.e]	_	.	.	.	.	.
8f#	to-	.	.	.	.	.
=47	=47	=47	=47	=47	=47	=47
8e	-ge-	2.AMm	.	voice	(D	A:7
8d	-ther,	.	.	.	d)	.
4c#	_	.	.	.	.	.
4r	.	.	.	.	.	.
=48	=48	=48	=48	=48	=48	=48
4F#	I	2.DM	.	voice	.	D:maj
4.A	knew	.	.	.	.	.
8d	for-	.	.	.	.	.
=49	=49	=49	=49	=49	=49	=49
8c#	-e-	2.EM	.	voice	.	E:maj
4.B	-ver,	.	.	.	.	.
4r	.	.	.	.	.	.
=50	=50	=50	=50	=50	=50	=50
4F#	you're	2.DM	newline	voice	.	D:maj
4G#	all	.	.	.	.	.
4A	I'll	.	.	.	.	.
=51	=51	=51	=51	=51	=51	=51
2c#	e-	2.EM	.	voice	(D	E:maj
4B	-ver	.	.	.	d)	.
=52	=52	=52	=52	=52	=52	=52
2A	need	2.AM	.	voice	C	A:maj
4r	.	.	.	.	.	.
=53	=53	=53	=53	=53	=53	=53
2r	.	2.EM	.	voice	.	E:maj
8r	.	.	.	.	.	.
8G#	Could	.	.	.	.	.
=54	=54	=54	=54	=54	=54	=54
*>Letter>C	*>Letter>C	*>Letter>C	*>Letter>C	*>Letter>C	*>Letter>C	*>Letter>C
*>Label>Chorus	*>Label>Chorus	*>Label>Chorus	*>Label>Chorus	*>Label>Chorus	*>Label>Chorus	*>Label>Chorus
4A	I	2.AM	newline	voice	.	A:maj
4G#	have	.	.	.	.	.
4B	this	.	.	.	.	.
=55	=55	=55	=55	=55	=55	=55
4A	dance	2.AMm	.	voice	.	A:7
4r	.	.	.	.	.	.
8F#	for	.	.	.	.	.
8G#	the	.	.	.	.	.
=56	=56	=56	=56	=56	=56	=56
4A	rest	2.DM	.	voice	.	D:maj
4F#	of	.	.	.	.	.
4E	my	.	.	.	.	.
=57	=57	=57	=57	=57	=57	=57
4F#	life,	2.DM	.	voice	B	D:maj
4r	.	.	.	.	.	.
8r	.	.	.	.	.	.
8E	Could	.	.	.	.	.
=58	=58	=58	=58	=58	=58	=58
8G#	you	2.EM	newline	voice	.	E:maj
[8G#	be	.	.	.	.	.
4.G#]	_	.	.	.	.	.
8G#	my	.	.	.	.	.
=59	=59	=59	=59	=59	=59	=59
8A	part-	2.EM	.	voice	.	E:maj
4.G#	-ner	.	.	.	.	.
4r	.	.	.	.	.	.
=60	=60	=60	=60	=60	=60	=60
4F#	ev	2.DM	.	voice	(D	D:maj
4G#	_	.	.	.	.	.
8A	ry	.	.	.	.	.
[8B	night,	.	.	.	B	.
=61	=61	=61	=61	=61	=61	=61
4.B]	_	2.EM	.	voice	.	E:maj
8r	.	.	.	.	.	.
4r	.	.	.	.	.	.
=62	=62	=62	=62	=62	=62	=62
4c#	when	2.AM	newline	voice	.	A:maj
4.c#	we're	.	.	.	.	.
8c#	to-	.	.	.	.	.
=63	=63	=63	=63	=63	=63	=63
8d	-ge-	2.AMm	.	voice	(D	A:7
4.c#	-ther	.	.	.	d)	.
4c#	it	.	.	.	.	.
=64	=64	=64	=64	=64	=64	=64
2A	feels	2.DM	.	voice	.	D:maj
4c#	so	.	.	.	.	.
=65	=65	=65	=65	=65	=65	=65
4.A	right	2.Dm	.	voice	B	D:min
8r	.	.	.	.	.	.
8r	.	.	.	.	.	.
8B	Could	.	.	.	.	.
=66	=66	=66	=66	=66	=66	=66
4c#	I	2.AM	newline	voice	.	A:maj
4B	have	.	.	.	.	.
8A	this	.	.	.	.	.
[8E	dance	.	.	.	.	.
=67	=67	=67	=67	=67	=67	=67
4E]	_	2.AM	.	voice	.	A:maj
4r	.	.	.	.	.	.
8B	for	.	.	.	.	.
8c#	the	.	.	.	.	.
=68	=68	=68	=68	=68	=68	=68
4d	rest	2.EM	.	voice	.	E:maj
4c#	of	.	.	.	.	.
4B	my	.	.	.	.	.
=69	=69	=69	=69	=69	=69	=69
*>Letter>D	*>Letter>D	*>Letter>D	*>Letter>D	*>Letter>D	*>Letter>D	*>Letter>D
*>Label>Trans	*>Label>Trans	*>Label>Trans	*>Label>Trans	*>Label>Trans	*>Label>Trans	*>Label>Trans
2A	life	2.AM	newline	voice	B	A:maj
4r	.	.	.	.	.	.
=70	=70	=70	=70	=70	=70	=70
2r	.	2.EM	.	voice	.	E:maj
8r	.	.	.	.	.	.
8G#	Could	.	.	.	.	.
=71	=71	=71	=71	=71	=71	=71
*>Letter>C	*>Letter>C	*>Letter>C	*>Letter>C	*>Letter>C	*>Letter>C	*>Letter>C
*>Label>Chorus	*>Label>Chorus	*>Label>Chorus	*>Label>Chorus	*>Label>Chorus	*>Label>Chorus	*>Label>Chorus
4A	I	2.AM	newline	voice	.	A:maj
4G#	have	.	.	.	.	.
4B	this	.	.	.	.	.
=72	=72	=72	=72	=72	=72	=72
4A	dance	2.AM	.	voice	.	A:maj
4r	.	.	.	.	.	.
8F#	for	.	.	.	.	.
8G#	the	.	.	.	.	.
=73	=73	=73	=73	=73	=73	=73
4A	rest	2.DM	.	voice	.	D:maj
4F#	of	.	.	.	.	.
4E	my	.	.	.	.	.
=74	=74	=74	=74	=74	=74	=74
4F#	life,	2.DM	.	voice	B	D:maj
4r	.	.	.	.	.	.
8r	.	.	.	.	.	.
8E	Could	.	.	.	.	.
=75	=75	=75	=75	=75	=75	=75
8G#	you	2.EM	newline	voice	.	E:maj
[8G#	be	.	.	.	.	.
4.G#]	_	.	.	.	.	.
8G#	my	.	.	.	.	.
=76	=76	=76	=76	=76	=76	=76
8A	part-	2.EM	.	voice	.	E:maj
4.G#	-ner	.	.	.	.	.
4r	.	.	.	.	.	.
=77	=77	=77	=77	=77	=77	=77
4F#	e	2.DM	.	voice	.	D:maj
4G#	_	.	.	.	.	.
8A	ry	.	.	.	.	.
[8B	night,	.	.	.	B	.
=78	=78	=78	=78	=78	=78	=78
4.B]	_	2.EM	.	voice	.	E:maj
8r	.	.	.	.	.	.
4r	.	.	.	.	.	.
=79	=79	=79	=79	=79	=79	=79
4c#	when	2.AM	newline	voice	.	A:maj
4.c#	we're	.	.	.	.	.
8c#	to-	.	.	.	.	.
=80	=80	=80	=80	=80	=80	=80
8d	-ge-	2.AMm	.	voice	(D	A:7
4.c#	-ther	.	.	.	d)	.
4c#	it	.	.	.	.	.
=81	=81	=81	=81	=81	=81	=81
2A	feels	2.DM	.	voice	.	D:maj
4c#	so	.	.	.	.	.
=82	=82	=82	=82	=82	=82	=82
4.A	right	2.Dm	.	voice	B	D:min
8r	.	.	.	.	.	.
8r	.	.	.	.	.	.
8B	Could	.	.	.	.	.
=83	=83	=83	=83	=83	=83	=83
4c#	I	2.AM	newline	voice	.	A:maj
4B	have	.	.	.	.	.
8A	this	.	.	.	.	.
[8E	dance	.	.	.	.	.
=84	=84	=84	=84	=84	=84	=84
4E]	_	2.AM	.	voice	.	A:maj
4r	.	.	.	.	.	.
8B	for	.	.	.	.	.
8c#	the	.	.	.	.	.
=85	=85	=85	=85	=85	=85	=85
2.d	rest	2.EM	.	voice	.	E:maj
=86	=86	=86	=86	=86	=86	=86
2c#	of	2.EM	.	voice	.	E:maj
8c#	my	.	.	.	.	.
8B	_	.	.	.	.	.
=87	=87	=87	=87	=87	=87	=87
*>Letter>D	*>Letter>D	*>Letter>D	*>Letter>D	*>Letter>D	*>Letter>D	*>Letter>D
*>Label>Coda	*>Label>Coda	*>Label>Coda	*>Label>Coda	*>Label>Coda	*>Label>Coda	*>Label>Coda
16c#	life	2.AM	newline	voice	B	A:maj
16B	_	.	.	.	.	.
[8A	_	.	.	.	.	.
2A]	_	.	.	.	.	.
=88	=88	=88	=88	=88	=88	=88
2.r	.	2.AM	.	guitar	.	A:maj
=89	=89	=89	=89	=89	=89	=89
2.r	.	2.DM	.	guitar	.	D:maj
=90	=90	=90	=90	=90	=90	=90
2.r	.	2.EM	.	guitar	.	E:maj
=91	=91	=91	=91	=91	=91	=91
r;	.	2.AM;	.	guitar	.	A:maj
*-	*-	*-	*-	*-	*-	*-
!!!BillboardChartDate: 1980/10/11
!!!BillboardPeak: 33
!!!BillboardWeeksOnChart: 14
!!!COC: Anne Murray
!!!EMD: Changed key down one full step. - Nat Condit-Schultz 2019-10-14
!!!EMD: The was based on the live version (1997) of the song. I shortened it to match the single version of song. Had to remove timestamps - Nat Condit-Schultz 2019-10-14
!!!ENC: Nathaniel Condit-Schultz
!!!EST: Awating manual error checking and editing.
!!!OTL: Could I Have This Dance
!!!RDF**chordsym: original McGill chord annotation + (implied pitch class set, with bass pitch in first position)
!!!RDF**harmony: **recip + pitch class of root + harmonic quality
!!!RDF**leadinstrument: original McGill primary instrumentation annotation
!!!RDF**phrase: newline = linebreak in original McGill transcription
!!!RDF**timestamp: McGill audio timestamp in seconds
!!!RDT: 2017/01/12/
!!!SampleActualRank: 41
!!!SampleID#: 0199
!!!SampleTargetRank: 40
